app/img/icons/f3.svg

<svg width="32" height="32" viewBox="0 0 32 32" fill="none" xmlns="http://www.w3.org/2000/svg">
<path d="M31.9937 7.89204C31.9564 7.54785 31.7425 7.24323 31.4228 7.09404L16.4228 0.094041C16.1548 -0.0310215 15.8451 -0.0310215 15.5771 0.094041L0.577062 7.09404C0.257437 7.24323 0.0435625 7.54779 0.006125 7.89204C0.0053125 7.89923 0 7.99498 0 8.00023V25.0002C0 25.4091 0.248937 25.7769 0.628625 25.9287L15.6286 31.9287C15.7478 31.9764 15.8739 32.0002 16 32.0002C16.1261 32.0002 16.2522 31.9764 16.3714 31.9287L31.3714 25.9287C31.7511 25.7769 32 25.4091 32 25.0002V8.00023C32 7.99498 31.9946 7.89917 31.9937 7.89204ZM16 2.10373L28.484 7.9296L23.6769 9.85248L10.9579 4.45673L16 2.10373ZM8.51937 5.59473L21.041 10.9068L16 12.9232L3.516 7.9296L8.51937 5.59473ZM2 9.47723L15 14.6772V29.5232L2 24.3232V9.47723ZM17 29.5232V14.6772L30 9.47723V24.3232L17 29.5232Z" fill="#FA4616"/>
</svg>

<svg width="32" height="32" fill="none" xmlns="http://www.w3.org/2000/svg"><path d="M31.994 7.892a1 1 0 00-.571-.798l-15-7a1 1 0 00-.846 0l-15 7A1 1 0 000 8v17a1 1 0 00.629.929l15 6a1 1 0 00.742 0l15-6A1 1 0 0032 25V8a4.96 4.96 0 00-.006-.108zM16 2.104L28.484 7.93l-4.807 1.922-12.72-5.395L16 2.104zm-7.48 3.49l12.521 5.313L16 12.923 3.516 7.93l5.003-2.335zM2 9.478l13 5.2v14.846l-13-5.2V9.477zm15 20.046V14.677l13-5.2v14.846l-13 5.2z" fill="#FA4616"/></svg>
